X:1
T: Jerry Hayes
C:
R:Reel
Q: 232
K:D
M:4/4
L:1/8
|:A2|d2 fd ce Ac|dA fd eg ce|d2 fd ce Ag|fd ec d2 A2|
d2 fd ce Ac|dA fd eg ce|d2 fd ce Ag|fd ec d2 AG|
FD AF dA BG|FD AF Ec AG|FD AF dA BG|FD EC A2 AG|
FD AD dA BG|FD AD Ec AG|FD AF dA Ag|fd ec d2:|
